svg/fluentui-system-icons/ic_fluent_text_align_distributed_vertical_20_regular.svg

<svg width="20" height="20" viewBox="0 0 20 20" fill="none" xmlns="http://www.w3.org/2000/svg">
<path d="M17.8536 4.85355C17.6583 5.04882 17.3417 5.04882 17.1464 4.85355L16 3.70711L16 17.5001C16 17.7763 15.7761 18.0001 15.5 18.0001C15.2239 18.0001 15 17.7763 15 17.5001L15 3.70711L13.8536 4.85355C13.6583 5.04882 13.3417 5.04882 13.1464 4.85355C12.9512 4.65829 12.9512 4.34171 13.1464 4.14645L15.1464 2.14645C15.3417 1.95118 15.6583 1.95118 15.8536 2.14645L17.8536 4.14645C18.0488 4.34171 18.0488 4.65829 17.8536 4.85355ZM2.85355 15.1466C2.65829 14.9513 2.34171 14.9513 2.14645 15.1466C1.95118 15.3418 1.95118 15.6584 2.14645 15.8537L4.14645 17.8537C4.34171 18.0489 4.65829 18.0489 4.85355 17.8537L6.85355 15.8537C7.04882 15.6584 7.04882 15.3418 6.85355 15.1466C6.65829 14.9513 6.34171 14.9513 6.14645 15.1466L5 16.293L5 2.5C5 2.22386 4.77614 2 4.5 2C4.22386 2 4 2.22386 4 2.5L4 16.293L2.85355 15.1466ZM10 18C9.72386 18 9.5 17.7761 9.5 17.5L9.5 2.5C9.5 2.22386 9.72386 2 10 2C10.2761 2 10.5 2.22386 10.5 2.5L10.5 17.5C10.5 17.7761 10.2761 18 10 18Z" fill="#212121"/>
</svg>

<svg xmlns="http://www.w3.org/2000/svg" width="20" height="20"><path d="M17.854 4.854a.5.5 0 0 1-.708 0L16 3.707V17.5a.5.5 0 1 1-1 0V3.707l-1.146 1.147a.5.5 0 0 1-.708-.708l2-2a.5.5 0 0 1 .708 0l2 2a.5.5 0 0 1 0 .708Zm-15 10.293a.5.5 0 1 0-.708.707l2 2a.5.5 0 0 0 .708 0l2-2a.5.5 0 1 0-.708-.707L5 16.293V2.5a.5.5 0 0 0-1 0v13.793l-1.146-1.146ZM10 18a.5.5 0 0 1-.5-.5v-15a.5.5 0 0 1 1 0v15a.5.5 0 0 1-.5.5Z"/></svg>
